images/apple-icon.svg

<svg fill="none" height="57" viewBox="0 0 57 57" width="57" xmlns="http://www.w3.org/2000/svg"><path clip-rule="evenodd" d="m28.5 52c12.9787 0 23.5-10.5213 23.5-23.5s-10.5213-23.5-23.5-23.5-23.5 10.5213-23.5 23.5 10.5213 23.5 23.5 23.5zm-11.0155-25.9481c1.4871 0 2.6927-1.2055 2.6927-2.6927 0-1.4871-1.2056-2.6927-2.6927-2.6927-1.4872 0-2.6928 1.2056-2.6928 2.6927 0 1.4872 1.2056 2.6927 2.6928 2.6927zm28.1509-2.6927c0 1.4872-1.2055 2.6927-2.6927 2.6927-1.4871 0-2.6927-1.2055-2.6927-2.6927 0-1.4871 1.2056-2.6927 2.6927-2.6927 1.4872 0 2.6927 1.2056 2.6927 2.6927zm-22.0077 14.6541c.7312.2011 1.4988.3016 2.303.3016.7129 0 1.4166-.1005 2.1111-.3016.7129-.1828 1.3434-.4935 1.8918-.9321.5666-.457 1.0235-1.0602 1.3708-1.8095.3473-.7677.5209-1.7273.5209-2.8788v-12.7213h-4.4415v12.5294c0 .8956-.2284 1.5445-.6854 1.9466-.4569.4021-1.0692.6031-1.8369.6031-.5301 0-1.051-.1462-1.5628-.4386-.5117-.2925-1.0783-.6489-1.6998-1.0693v4.0577c.6215.2924 1.2977.53 2.0288.7128z" fill="#ff512f" fill-rule="evenodd"/></svg>

<svg width="57" height="57" viewBox="0 0 57 57" fill="none" xmlns="http://www.w3.org/2000/svg">
<path fill-rule="evenodd" clip-rule="evenodd" d="M28.5 52C41.4787 52 52 41.4787 52 28.5C52 15.5213 41.4787 5 28.5 5C15.5213 5 5 15.5213 5 28.5C5 41.4787 15.5213 52 28.5 52ZM17.4845 26.0519C18.9716 26.0519 20.1772 24.8464 20.1772 23.3592C20.1772 21.8721 18.9716 20.6665 17.4845 20.6665C15.9973 20.6665 14.7917 21.8721 14.7917 23.3592C14.7917 24.8464 15.9973 26.0519 17.4845 26.0519ZM45.6354 23.3592C45.6354 24.8464 44.4299 26.0519 42.9427 26.0519C41.4556 26.0519 40.25 24.8464 40.25 23.3592C40.25 21.8721 41.4556 20.6665 42.9427 20.6665C44.4299 20.6665 45.6354 21.8721 45.6354 23.3592ZM23.6277 38.0133C24.3589 38.2144 25.1265 38.3149 25.9307 38.3149C26.6436 38.3149 27.3473 38.2144 28.0418 38.0133C28.7547 37.8305 29.3852 37.5198 29.9336 37.0812C30.5002 36.6242 30.9571 36.021 31.3044 35.2717C31.6517 34.504 31.8253 33.5444 31.8253 32.3929V19.6716H27.3838V32.201C27.3838 33.0966 27.1554 33.7455 26.6984 34.1476C26.2415 34.5497 25.6292 34.7507 24.8615 34.7507C24.3314 34.7507 23.8105 34.6045 23.2987 34.3121C22.787 34.0196 22.2204 33.6632 21.5989 33.2428V37.3005C22.2204 37.5929 22.8966 37.8305 23.6277 38.0133Z" fill="#FF512F"/>
</svg>
